!!!COM:	Josquin des Prez
!!!CDT:	~1450-1521/08/27
!!!OTL@@LAT: Domine, non secundum peccata
!!!OTL2@@LAT: Domine, ne memineris
!!!OTL3@@LAT: Adjuva nos, deus
!!!AGN:	Motet
!!!SCT:	NJE 16.10
!!!SCA:	New Josquin Edition 16.10
!!!voices:	2-4
**kern	**kern	**kern	**kern
*staff4	*staff3	*staff2	*staff1
*Ivox	*Ivox	*Ivox	*Ivox
*I"Bassus	*I"Tenor	*I"Altus	*I"Superius
*I'B	*I'T	*I'A	*I'S
*>A	*>A	*>A	*>A
*clefF4	*clefGv2	*clefGv2	*clefG2
*k[b-]	*k[b-]	*k[b-]	*k[b-]
*M2/1	*M2/1	*M2/1	*M2/1
*met(C|)	*met(C|)	*met(C|)	*met(C|)
=1-	=1-	=1-	=1-
0r	0r	0G	0g
=2	=2	=2	=2
0r	0r	1r	1f
.	.	1G	1g
=3	=3	=3	=3
0r	0r	1d	1f
.	.	1e	1g
=4	=4	=4	=4
0r	0r	1d	2f/
.	.	.	2d/
.	.	1g	1e
=5	=5	=5	=5
0r	0r	2.f\	0d
.	.	4e\	.
.	.	4d\	.
.	.	4c\	.
.	.	[2B-\	.
=6	=6	=6	=6
0r	0r	2B-\]	1r
.	.	4A/	.
.	.	4G/	.
.	.	2A/	1f
.	.	2d\	.
=7	=7	=7	=7
0r	0r	2r	1g
.	.	2.G/	.
.	.	.	[1b-
.	.	4F/	.
.	.	4G/	.
.	.	4A/	.
=8	=8	=8	=8
0r	0r	4B-\	1b-]
.	.	4A/	.
.	.	4B-\	.
.	.	4c\	.
.	.	4d\	1b-
.	.	4c\	.
.	.	4d\	.
.	.	4e\	.
=9	=9	=9	=9
0r	0r	2f\	2a/
.	.	1g	2g/
.	.	.	1a
.	.	2f\	.
=10	=10	=10	=10
0r	0r	2g\	1.g
.	.	2c\	.
.	.	2r	.
.	.	2c\	2a/
=11	=11	=11	=11
0r	0r	2d\	2b-\
.	.	2e\	1cc
.	.	2f\	.
.	.	[2g\	[2b-\
=12	=12	=12	=12
0r	0r	2g\]	2b-\]
.	.	1f	2a/
.	.	.	1g
.	.	2e\	.
=13	=13	=13	=13
0r	0r	2f\	0f
.	.	1B-	.
.	.	4A/	.
.	.	4G/	.
=14	=14	=14	=14
0r	0r	2B-\	1r
.	.	2A/	.
.	.	1d	1f
=15	=15	=15	=15
0r	0r	2r	2.g/
.	.	1G	.
.	.	.	4a/
.	.	.	4b-\
.	.	.	4a/
.	.	2d\	[2b-\
=16	=16	=16	=16
0r	0r	2B-\	2b-\]
.	.	2c\	1g
.	.	1A	.
.	.	.	2f#i/
=17	=17	=17	=17
0r	0r	2r	1.g
.	.	1g	.
.	.	2f\	2a/
=18	=18	=18	=18
0r	0r	2g\	2b-\
.	.	2e\	1cc
.	.	2f\	.
.	.	[2g\	[2b-\
=19	=19	=19	=19
0r	0r	2g\]	2b-\]
.	.	2f\	2a/
.	.	2d\	2b-\
.	.	[2e-\	[2cc\
=20	=20	=20	=20
0r	0r	4e-\]	2cc\]
.	.	4d\	.
.	.	4c\	1b-
.	.	4B-\	.
.	.	1c	.
.	.	.	2a/
=21	=21	=21	=21
0r	0r	2r	0b-
.	.	1B-	.
.	.	4A/	.
.	.	4G/	.
=22	=22	=22	=22
0r	0r	2B-\	1r
.	.	2A/	.
.	.	2r	1f
.	.	[2B-\	.
=23	=23	=23	=23
0r	0r	2B-\]	1g
.	.	4A/	.
.	.	4G/	.
.	.	2d\	[1b-
.	.	2G/	.
=24	=24	=24	=24
0r	0r	2r	2b-\]
.	.	2.d\	4a/
.	.	.	4g/
.	.	.	2b-\
.	.	4c\	.
.	.	4d\	[2a/
.	.	4e\	.
=25	=25	=25	=25
0r	0r	2f\	2a/]
.	.	2g\	1g
.	.	2b-\	.
.	.	[2a\	2f/
=26	=26	=26	=26
0r	0r	2a\]	1g
.	.	1g	.
.	.	.	1a
.	.	2f\	.
=27	=27	=27	=27
0r	0r	2g\	0g
.	.	2c\	.
.	.	2r	.
.	.	[2c\	.
=28	=28	=28	=28
0r	0r	2c\]	2r
.	.	2B-\	2g/
.	.	2c\	2g/
.	.	2G/	2g/
=29	=29	=29	=29
0r	0r	2r	1g
.	.	1g	.
.	.	.	1a
.	.	2f\	.
=30	=30	=30	=30
0r	0r	2g\	0g
.	.	1c	.
.	.	2B-\	.
=31	=31	=31	=31
0r	0r	2c\	2r
.	.	2B-\	1g
.	.	2r	.
.	.	2d\	2f/
=32	=32	=32	=32
0r	0r	2e\	2.g/
.	.	2.g\	.
.	.	.	4a/
.	.	.	2b-\
.	.	4f\	.
.	.	4e\	[2cc\
.	.	4d\	.
=33	=33	=33	=33
0r	0r	2f\	2cc\]
.	.	2B-\	1b-
.	.	1c	.
.	.	.	2a/
=34	=34	=34	=34
0r	0r	1B-	1b-
.	.	1r	[1cc
=35	=35	=35	=35
0r	0r	1F	1cc]
.	.	1G	1b-
=36	=36	=36	=36
0r	0r	1F	1r
.	.	[1B-	1f
=37	=37	=37	=37
0r	0r	2B-\]	1g
.	.	2B-\	.
.	.	[1B-	1f
=38	=38	=38	=38
0r	0r	2B-\]	1.b-
.	.	4A/	.
.	.	4G/	.
.	.	[1g	.
.	.	.	2b-\
=39	=39	=39	=39
0r	0r	1g]	1b-
.	.	1G	2r
.	.	.	[2b-\
=40	=40	=40	=40
0r	0r	1d	2b-\]
.	.	.	2a/
.	.	2.e-\	1g
.	.	4d\	.
=41	=41	=41	=41
0r	0r	2c\	1g
.	.	2B-\	.
.	.	2A/	2f/
.	.	[2G/	2g/
=42	=42	=42	=42
0r	0r	4G/]	2e/
.	.	4F/	.
.	.	4G/	1d
.	.	4A/	.
.	.	2B-\	.
.	.	2c\	[2g/
=43	=43	=43	=43
0r	0r	2A/	2g/]
.	.	2d\	2f/
.	.	2e\	1g
.	.	2g\	.
=44	=44	=44	=44
0r	0r	2f\	[0a
.	.	2.d\	.
.	.	4c\	.
.	.	4d\	.
.	.	4e\	.
=45	=45	=45	=45
0r	0r	2f\	0a]
.	.	1g	.
.	.	2f#i\	.
=46	=46	=46	=46
0r	0r	0g	0g
!!LO:LB:i:g=z
=47||	=47||	=47||	=47||
*>B	*>B	*>B	*>B
*clefF4	*clefGv2	*clefGv2	*clefG2
*k[b-]	*k[b-]	*k[b-]	*k[b-]
*M2/1	*M2/1	*M2/1	*M2/1
*met(C|)	*met(C|)	*met(C|)	*met(C|)
!!section: Secunda pars: Domine, ne memineris
!!!OMD: Secunda pars: Domine, ne memineris
0D	[0B-	0r	0r
=48	=48	=48	=48
1E-i	0B-]	0r	0r
[1D	.	.	.
=49	=49	=49	=49
2D\]	0A	0r	0r
4C/	.	.	.
4BB-/	.	.	.
2C/	.	.	.
2D\	.	.	.
=50	=50	=50	=50
1GG	0B-	0r	0r
1G	.	.	.
=51	=51	=51	=51
2E\	0c	0r	0r
2F\	.	.	.
2E\	.	.	.
[2F\	.	.	.
=52	=52	=52	=52
2F\]	0c	0r	0r
4E\	.	.	.
4D\	.	.	.
2E\	.	.	.
2F\	.	.	.
=53	=53	=53	=53
1BB-	1.d	0r	0r
1F	.	.	.
.	2c\	.	.
=54	=54	=54	=54
1G	1B-	0r	0r
1F	1A	.	.
=55	=55	=55	=55
1G	1.B-	0r	0r
1D	.	.	.
.	2A/	.	.
=56	=56	=56	=56
1E-	1G	0r	0r
1D	1F	.	.
=57	=57	=57	=57
1E-i	1G	0r	0r
[1D	2A/	.	.
.	[2B-\	.	.
=58	=58	=58	=58
2D\]	1B-]	0r	0r
2BB-/	.	.	.
2C/	2A/	.	.
[2D\	[2B-\	.	.
=59	=59	=59	=59
4D\]	1B-]	0r	0r
4C/	.	.	.
4D\	.	.	.
4E\	.	.	.
2F\	2A/	.	.
2G\	[2B-\	.	.
=60	=60	=60	=60
2D\	2B-\]	0r	0r
1G	4A/	.	.
.	4G/	.	.
.	1A	.	.
2F\	.	.	.
=61	=61	=61	=61
2G\	1G	0r	0r
2B-\	.	.	.
2A\	1r	.	.
[2B-\	.	.	.
=62	=62	=62	=62
2B-\]	1G	0r	0r
4A\	.	.	.
4G\	.	.	.
1A	1F	.	.
=63	=63	=63	=63
0G	1B-	0r	0r
.	[1B-	.	.
=64	=64	=64	=64
1r	2B-\]	0r	0r
.	2A/	.	.
1D	1B-	.	.
=65	=65	=65	=65
1C	1c	0r	0r
1F	[1d	.	.
=66	=66	=66	=66
1.F	2d\]	0r	0r
.	2c\	.	.
.	[1c	.	.
2E\	.	.	.
=67	=67	=67	=67
1F	1c]	0r	0r
1G	[1B-	.	.
=68	=68	=68	=68
[0D	2B-\]	0r	0r
.	2A/	.	.
.	2B-\	.	.
.	[2A/	.	.
=69	=69	=69	=69
0D]	2A/]	0r	0r
.	2B-\	.	.
.	2A/	.	.
.	[2B-\	.	.
=70	=70	=70	=70
1C	2B-\]	0r	0r
.	4A/	.	.
.	4G/	.	.
1D	2B-\	.	.
.	[2A/	.	.
=71	=71	=71	=71
2BB-/	2A/]	0r	0r
2C/	1G	.	.
1AA	.	.	.
.	2F#i/	.	.
=72	=72	=72	=72
1GG	0G	0r	0r
2r	.	.	.
2G\	.	.	.
=73	=73	=73	=73
2G\	0r	0r	0r
1B-	.	.	.
2G\	.	.	.
=74	=74	=74	=74
2A\	2r	0r	0r
2B-\	2G/	.	.
[1G	2G/	.	.
.	[2B-\	.	.
=75	=75	=75	=75
1G]	2B-\]	0r	0r
.	2G/	.	.
2r	2A/	.	.
[2GG/	2B-\	.	.
=76	=76	=76	=76
2GG/]	1G	0r	0r
2GG/	.	.	.
2AA/	2r	.	.
2BB-/	[2G/	.	.
=77	=77	=77	=77
1GG	2G/]	0r	0r
.	2G/	.	.
2r	2A/	.	.
[2G\	2B-\	.	.
=78	=78	=78	=78
2G\]	1G	0r	0r
2G\	.	.	.
2A\	2r	.	.
2B-\	[2G/	.	.
=79	=79	=79	=79
1G	2G/]	0r	0r
.	2G/	.	.
2F\	2A/	.	.
2D\	2B-\	.	.
=80	=80	=80	=80
1E	1G	0r	0r
1D	2F/	.	.
.	[2A/	.	.
=81	=81	=81	=81
1C	4A/]	0r	0r
.	4G/	.	.
.	2.G/	.	.
1E	.	.	.
.	4F/	.	.
.	2G/	.	.
=82	=82	=82	=82
1D	2A/	0r	0r
.	2B-\	.	.
2r	1c	.	.
2C/	.	.	.
=83	=83	=83	=83
2D\	2B-\	0r	0r
2E\	1c	.	.
1F	.	.	.
.	2A/	.	.
=84	=84	=84	=84
2r	2B-\	0r	0r
2C/	2c\	.	.
2D\	2F/	.	.
2C/	[2c\	.	.
=85	=85	=85	=85
2.D\	2c\]	0r	0r
.	2B-\	.	.
4E\	.	.	.
2F\	2A/	.	.
[2G\	[2B-\	.	.
=86	=86	=86	=86
2G\]	2B-\]	0r	0r
1F	2A/	.	.
.	1G	.	.
2E\	.	.	.
=87	=87	=87	=87
0Fl;	0Fl;	0r;	0r;
=88	=88	=88	=88
*M3/1	*M3/1	*M3/1	*M3/1
*met(3)	*met(3)	*met()	*met()
!!primary-mensuration: met(3)
0.r	1.F	0.r	0.r
.	2G/	.	.
.	1A	.	.
=89	=89	=89	=89
1.BB-	0B-	0.r	0.r
2C/	.	.	.
1D	1A	.	.
=90	=90	=90	=90
0E-	1G	0.r	0.r
.	1.B-	.	.
1D	.	.	.
.	2A/	.	.
=91	=91	=91	=91
1C	1A	0.r	0.r
1E-i	1.G	.	.
1D	.	.	.
.	2F/	.	.
=92	=92	=92	=92
1.C	1G	0.r	0.r
.	1A	.	.
2BB-/	.	.	.
1C	1r	.	.
=93	=93	=93	=93
0D	1F	0.r	0.r
.	1F	.	.
1r	1F	.	.
=94	=94	=94	=94
1BB-	1G	0.r	0.r
1BB-	1F	.	.
1BB-	[1G	.	.
=95	=95	=95	=95
0C	1G]	0.r	0.r
.	0A	.	.
1D	.	.	.
=96	=96	=96	=96
1BB-	1G	0.r	0.r
1.C	0G	.	.
2BB-/	.	.	.
=97	=97	=97	=97
1.GG	1r	0.r	0.r
.	0G	.	.
2AA/	.	.	.
2BB-/	.	.	.
2C/	.	.	.
=98	=98	=98	=98
1AA	1F	0.r	0.r
1GG	1.G	.	.
[1G	.	.	.
.	2A/	.	.
=99	=99	=99	=99
2G\]	0B-	0.r	0.r
2F\	.	.	.
1.D	.	.	.
.	1A	.	.
2C/	.	.	.
=100	=100	=100	=100
1D	1B-	0.r	0.r
1E	0c	.	.
1F	.	.	.
=101	=101	=101	=101
1.G	0.B-	0.r	0.r
2F\	.	.	.
[1D	.	.	.
=102	=102	=102	=102
2D\]	1A	0.r	0.r
2C/	.	.	.
1.D	1B-	.	.
.	1A	.	.
2C/	.	.	.
=103	=103	=103	=103
1D	1B-	0.r	0.r
1E	0c	.	.
1F	.	.	.
=104	=104	=104	=104
1BB-	0B-	0.r	0.r
0C	.	.	.
.	1A	.	.
=105	=105	=105	=105
0.BB-;l	0.B-;l	0.r;	0.r;
=106||	=106||	=106||	=106||
*>C	*>C	*>C	*>C
*clefF4	*clefGv2	*clefGv2	*clefG2
*k[]	*k[]	*k[]	*k[]
*M2/1	*M2/1	*M2/1	*M2/1
*met(C|)	*met(C|)	*met(C|)	*met(C|)
0BB-	0B-	0d	0f
=107	=107	=107	=107
0BB-	0B-	0d	0f
=108	=108	=108	=108
[0E-	0B-	1.G	[0g
.	.	2A/	.
=109	=109	=109	=109
1E-]	1G	1B-	1g]
1D	1F	1B-	1d
=110	=110	=110	=110
0C	1.G	0c	0e-i
.	2A/	.	.
=111	=111	=111	=111
0BB-	0B-	0F	[0d
=112	=112	=112	=112
1r	1r	1r	0d_
1D	1B-	1F	.
=113	=113	=113	=113
1D	1B-	1F	0d]
1D	1B-	1F	.
=114	=114	=114	=114
1C	1A	1E	0r
1BB-	1B-	1F	.
=115	=115	=115	=115
0E-	0c	0G	0r
=116	=116	=116	=116
1.D	1.B-	1.F	1r
.	.	.	1f
2C/	2A/	2E/	.
=117	=117	=117	=117
1BB-	1G	1D	1g
1AA	1F	1C	1a
=118	=118	=118	=118
1GG	0G	2D/	1.b-
.	.	2.d\	.
1G	.	.	.
.	.	4c\	.
.	.	4d\	4a/
.	.	4e\	4g/
=119	=119	=119	=119
1F	[0A	2f\	1cc
.	.	2c\	.
2D\	.	1d	2b-\
[2F\	.	.	[2a/
=120	=120	=120	=120
2F\]	0A_	1c	2a/]
2E\	.	.	2g/
2D\	.	1d	2f/
[2F\	.	.	[2a/
=121	=121	=121	=121
2F\]	0A]	1c	4a/]
.	.	.	4g/
2E\	.	.	1g
1D	.	1d	.
.	.	.	2f#i/
=122	=122	=122	=122
!LO:N:vis=000	!LO:N:vis=000	!LO:N:vis=000	!LO:N:vis=000
0GG	0G	0B-	0g
!!LO:LB:i:g=z
=123||	=123||	=123||	=123||
*>D	*>D	*>D	*>D
*clefF4	*clefGv2	*clefGv2	*clefG2
*k[]	*k[]	*k[]	*k[]
*M2/1	*M2/1	*M2/1	*M2/1
*met(C|)	*met(C|)	*met(C|)	*met(C|)
!!section: Tertia pars: Adjuva nos, deus
!!!OMD: Tertia pars: Adjuva nos, deus
0r	0r	0r	0b-
=124	=124	=124	=124
0r	0r	0r	0dd
=125	=125	=125	=125
0r	0r	0r	0ee-
=126	=126	=126	=126
0r	0r	0B-	1dd
.	.	.	1dd
=127	=127	=127	=127
0r	0r	0d	1dd
.	.	.	[1dd
=128	=128	=128	=128
0r	0r	0e-	2dd\]
.	.	.	4cc\
.	.	.	4b-\
.	.	.	1cc
=129	=129	=129	=129
0r	0B-	1d	0dd
.	.	1d	.
=130	=130	=130	=130
0r	0d	1d	0r
.	.	[1d	.
=131	=131	=131	=131
0r	0e-	2d\]	1g
.	.	4c\	.
.	.	4B-\	.
.	.	1c	1g
=132	=132	=132	=132
0BB-	1d	0d	1f
.	1d	.	[1b-
=133	=133	=133	=133
0D	1d	0r	2b-\]
.	.	.	2a/
.	[1d	.	1f
=134	=134	=134	=134
0E-	2d\]	1G	0g
.	4c\	.	.
.	4B-\	.	.
.	1c	1G	.
=135	=135	=135	=135
1D	[0d	1F	1a
1D	.	[1B-	1d
=136	=136	=136	=136
0D	0d]	2B-\]	0f
.	.	2A/	.
.	.	1B-	.
=137	=137	=137	=137
1C	0G	1c	1e-i
1BB-	.	[1d	1d
=138	=138	=138	=138
0C	0G	1d]	0e-i
.	.	1c	.
=139	=139	=139	=139
0D	0F	1B-	[0d
.	.	1A	.
=140	=140	=140	=140
0r	0B-	1.G	1d]
.	.	.	[1g
.	.	2F/	.
=141	=141	=141	=141
0r	1B-	2E-i/	0g]
.	.	2D/	.
.	1c	1E-i	.
=142	=142	=142	=142
[0BB-	[0d	0D	[0f
=143	=143	=143	=143
0BB-]	0d]	[0f	1f]
.	.	.	[1b-
=144	=144	=144	=144
0F	0c	0f]	1b-]
.	.	.	1a
=145	=145	=145	=145
1G	1B-	1e-i	1g
1F	1A	1f	[1a
=146	=146	=146	=146
0G	0B-	[0d	1a]
.	.	.	1g
=147	=147	=147	=147
0D	1A	0d]	1a
.	[1B-	.	1f
=148	=148	=148	=148
1E-i	1B-]	1G	1g
[1F	[1A	[1c	[1a
=149	=149	=149	=149
1F]	1A]	2c\]	1a]
.	.	4B-\	.
.	.	4A/	.
1D	[1B-	1d	1f
=150	=150	=150	=150
1E-i	1B-]	1G	1g
1F	1A	1c	1a
=151	=151	=151	=151
1G	1B-	1B-	1d
1E-i	1G	1c	[1g
=152	=152	=152	=152
0D	0A	0d	2g/]
.	.	.	2e/
.	.	.	1f#i
=153	=153	=153	=153
0GG	[0G	2.B-\	[0g
.	.	4c\	.
.	.	2d\	.
.	.	[2e-\	.
=154	=154	=154	=154
1r	0G]	2e-\]	0g]
.	.	2d\	.
1G	.	2e-i\	.
.	.	[2d\	.
=155	=155	=155	=155
1G	0r	2d\]	0r
.	.	2B-\	.
1A	.	2.c\	.
.	.	4B-\	.
=156	=156	=156	=156
1.B-	0r	2.G/	1r
.	.	4A/	.
.	.	4B-\	1g
.	.	4c\	.
2G\	.	[2B-\	.
=157	=157	=157	=157
1G	0r	2B-\]	1g
.	.	4A/	.
.	.	4G/	.
1r	.	1F	1a
=158	=158	=158	=158
2.G\	1r	0r	1.b-
4A\	.	.	.
4B-\	1G	.	.
4c\	.	.	.
[2B-\	.	.	2g/
=159	=159	=159	=159
2B-\]	1G	0r	1g
4A\	.	.	.
4G\	.	.	.
1F#i	1A	.	1r
=160	=160	=160	=160
0G	1.B-	1d	1r
.	.	2G/	[1g
.	2G/	2d\	.
=161	=161	=161	=161
1r	1G	2e\	1g]
.	.	1g	.
[1D	1r	.	[1a
.	.	4f\	.
.	.	4e\	.
=162	=162	=162	=162
1D]	1r	1f	1a]
[1E-	[1G	1B-	1g
=163	=163	=163	=163
1E-]	1G]	1c	1g
1D	[1A	1d	1r
=164	=164	=164	=164
1D	1A]	2r	1f
.	.	2.d\	.
1r	1G	.	[1g
.	.	4c\	.
.	.	4B-\	.
.	.	4A/	.
=165	=165	=165	=165
1r	1G	2.B-\	1g]
.	.	4c\	.
1D	1r	2A/	1f
.	.	[2B-\	.
=166	=166	=166	=166
1E-i	0r	2B-\]	1g
.	.	4A/	.
.	.	4G/	.
1D	.	2F/	[1a
.	.	[2f\	.
=167	=167	=167	=167
0r	1F	4f\]	1a]
.	.	4e\	.
.	.	4d\	.
.	.	4c\	.
.	[1G	2e\	1g
.	.	[2d\	.
=168	=168	=168	=168
1r	1G]	2d\]	1g
.	.	4c\	.
.	.	4B-\	.
1D	1F	1A	1r
=169	=169	=169	=169
1E-i	1G	2r	0r
.	.	1g	.
1C	[1A	.	.
.	.	4f\	.
.	.	4e\	.
=170	=170	=170	=170
1D	1A]	2f\	0r
.	.	1d	.
[1E-i	1G	.	.
.	.	4c\	.
.	.	4B-\	.
=171	=171	=171	=171
1E-]	1G	2c\	1g
.	.	2g\	.
1D	1r	2f\	2a/
.	.	[2d\	[2b-\
=172	=172	=172	=172
1E-i	0r	4d\]	2b-\]
.	.	4c\	.
.	.	2g\	4a/
.	.	.	4g/
1D	.	2f\	2a/
.	.	[2d\	[2b-\
=173	=173	=173	=173
0E-i	0G	2d\]	2b-\]
.	.	4c\	2a/
.	.	4B-\	.
.	.	1c	1g
=174	=174	=174	=174
0D	1A	0d	0f
.	[1B-	.	.
=175	=175	=175	=175
1E-i	2B-\]	1G	0r
.	4A/	.	.
.	4G/	.	.
1D	2A/	[1d	.
.	[2B-\	.	.
=176	=176	=176	=176
0E-i	2B-\]	1d]	0r
.	2A/	.	.
.	1G	1c	.
=177	=177	=177	=177
[0D	0F	[0d	1.a
.	.	.	2g/
=178	=178	=178	=178
0D]	0r	0d]	1a
.	.	.	1b-
=179	=179	=179	=179
0r	1.A	1r	1.cc
.	.	[1c	.
.	2G/	.	2b-\
=180	=180	=180	=180
0r	1A	1c]	1a
.	1B-	1d	[1g
=181	=181	=181	=181
0C	0c	1e	2g/]
.	.	.	2f/
.	.	[1g	2e/
.	.	.	4d/
.	.	.	4c/
=182	=182	=182	=182
1GG	1B-	2g\]	1d
.	.	2f\	.
1C	1c	1e	1c
=183	=183	=183	=183
1GG	1B-	1d	0g
1C	1c	1e	.
=184	=184	=184	=184
1D	1A	0d	1f
1BB-	1B-	.	[1g
=185	=185	=185	=185
1F	1A	1c	2g/]
.	.	.	2a/
1BB-	1B-	1d	[1f
=186	=186	=186	=186
0C	0G	0c	1f]
.	.	.	1e
=187	=187	=187	=187
0FFl;	0Fl;	0Al;	0fl;
=188	=188	=188	=188
*M3/1	*M3/1	*M3/1	*M3/1
*met(O)	*met(O)	*met(O)	*met(O)
0D	0F	0.r	0.r
1BB-	1G	.	.
=189	=189	=189	=189
1C	1A	0.r	0.r
1D	1.B-	.	.
[1GG	.	.	.
.	2A/	.	.
=190	=190	=190	=190
1GG]	0G	0.r	0.r
0AA	.	.	.
.	1F	.	.
=191	=191	=191	=191
1GG	1G	0.r	0.r
1D	1F	.	.
1E-i	1G	.	.
=192	=192	=192	=192
0D	0A	0d	0f
1r	1G	1B-	1g
=193	=193	=193	=193
0.r	0.r	1c	1a
.	.	1d	1.b-
.	.	[1G	.
.	.	.	2a/
=194	=194	=194	=194
0.r	0.r	1G]	0g
.	.	0A	.
.	.	.	1f
=195	=195	=195	=195
0.r	0.r	1G	1g
.	.	1d	1f
.	.	1e	1g
=196	=196	=196	=196
0.r	0.r	0f	0a
.	.	1g	1g
=197	=197	=197	=197
0.r	1G	1b-	0.r
.	1F	1.a	.
.	[1G	.	.
.	.	2g\	.
=198	=198	=198	=198
1r	1G]	1g	0.r
1r	0A	1e	.
1D	.	1f	.
=199	=199	=199	=199
1E-	1G	0B-	1g
1D	1r	.	1f
1E-i	1r	1G	[1g
=200	=200	=200	=200
1C	0.r	[0.c	1g]
0F	.	.	0a
=201	=201	=201	=201
1E-i	0G	1c]	1g
1.D	.	1d	1r
.	1F	1B-	1r
2C/	.	.	.
=202	=202	=202	=202
1E-i	1G	1c	0g
0D	0A	0d	.
.	.	.	1f#i
=203	=203	=203	=203
1GG	1B-	1d	0g
0C	1.c	1e	.
.	.	1c	1a
.	2B-\	.	.
=204	=204	=204	=204
1D	0B-	1f	1b-
1E	.	1g	1.cc
1F	1A	1a	.
.	.	.	2b-\
=205	=205	=205	=205
0G	1B-	1d	0b-
.	1.c	1e	.
1F	.	1f	1a
.	2B-\	.	.
=206	=206	=206	=206
1G	1G	1B-	1b-
1A	1F	1f	1.cc
1B-	[1B-	1d	.
.	.	.	2b-\
=207	=207	=207	=207
1E-	2B-\]	1e-	1g
.	2c\	.	.
1.B-	2d\	1.d	0f
.	2e\	.	.
.	1f	.	.
2A\	.	2c\	.
=208	=208	=208	=208
1G	1B-	2d\	0b-
.	.	2e\	.
0F	0c	0f	.
.	.	.	1a
=209	=209	=209	=209
0.BB-;l	0.B-;l	0.d;l	0.b-;l
=210	=210	=210	=210
*M2/1	*M2/1	*M2/1	*M2/1
*met(C|)	*met(C|)	*met(C|)	*met(C|)
[0E-	0B-	[0G	0r
=211	=211	=211	=211
0E-_	0c	0G_	0r
=212	=212	=212	=212
0E-]	[0B-	0G]	0r
=213	=213	=213	=213
1.D	1B-]	0F	0r
.	1A	.	.
2C/	.	.	.
=214	=214	=214	=214
2BB-/	0G	1D	0b-
2AA/	.	.	.
1GG	.	1E	.
=215	=215	=215	=215
0AA	0F	0C	0cc
=216	=216	=216	=216
0GG	1.G	1D	1.b-
.	.	[1E-	.
.	2A/	.	2a/
=217	=217	=217	=217
1r	2B-\	1E-]	1g
.	2G/	.	.
1D	1A	2D/	1f
.	.	[2d\	.
=218	=218	=218	=218
1E-	1r	2d\]	1.g
.	.	2c\	.
1C	1c	1e-i	.
.	.	.	2a/
=219	=219	=219	=219
1G	1B-	2.d\	2b-\
.	.	.	2g/
.	.	4e\	.
1F	[1c	1f	1a
=220	=220	=220	=220
1.E-i	2c\]	1g	2r
.	2B-\	.	2.g/
.	2c\	2G/	.
.	.	.	4e/
2D\	[2B-\	2F/	2f/
=221	=221	=221	=221
1E-i	2B-\]	2.B-\	1g
.	2G/	.	.
.	.	4c\	.
2.D\	1A	[1d	[1f
4C/	.	.	.
=222	=222	=222	=222
2D\	1B-	2d\]	2f/]
2E-i\	.	2G/	1g
1C	1c	1G	.
.	.	.	2e/
=223	=223	=223	=223
1BB-	1d	1B-	2f/
.	.	.	2g/
1F	2c\	1A	1a
.	[2d\	.	.
=224	=224	=224	=224
1G	2d\]	2B-\	1d
.	2B-\	2G/	.
2F\	2A/	2A/	1r
2E-i\	[2G/	[2c\	.
=225	=225	=225	=225
1D	2G/]	2c\]	0r
.	2F/	2B-\	.
[1C	2G/	[1e-	.
.	[2B-\	.	.
=226	=226	=226	=226
1C]	2B-\]	1e-]	0r
.	2A/	.	.
1BB-	2B-\	1d	.
.	[2d\	.	.
=227	=227	=227	=227
1E-i	2d\]	1G	1g
.	2c\	.	.
2D\	2A/	1d	2f/
2BB-/	[2B-\	.	2d/
=228	=228	=228	=228
1C	2B-\]	2r	1e-i
.	2A/	2c\	.
2.G\	2B-\	2d\	1d
.	[2d\	[2B-\	.
4F\	.	.	.
=229	=229	=229	=229
2D\	2d\]	2B-\]	1r
2F\	1c	2A/	.
1E-i	.	2B-\	2r
.	[2B-\	2G/	[2g/
=230	=230	=230	=230
1D	2B-\]	1d	2g/]
.	1A	.	2f/
2C/	.	2r	1g
2BB-/	[2G/	2d\	.
=231	=231	=231	=231
1AA	2G/]	2c\	1a
.	2F#i/	2A/	.
1GG	1G	2B-\	1d
.	.	4A/	.
.	.	4G/	.
=232	=232	=232	=232
1D	[0A	2.F/	2r
.	.	.	2f/
.	.	4D/	.
2C/	.	2E/	2e/
[2D\	.	2D/	[2f/
=233	=233	=233	=233
1D]	0A_	2.f\	4f/]
.	.	.	4g/
.	.	.	4a/
.	.	4d\	4b-\
2C/	.	2e-i\	2cc\
2D\	.	[2d\	2a/
=234	=234	=234	=234
1AA	0A]	2d\]	4cc\
.	.	.	4b-\
.	.	2c\	4a/
.	.	.	4g/
1D	.	2d\	1f
.	.	2D/	.
=235	=235	=235	=235
2r	[0A	2.F/	2r
2D\	.	.	2f/
.	.	4D/	.
2C/	.	2E/	2e/
[2D\	.	2D/	[2f/
=236	=236	=236	=236
1D]	0A_	2.f\	4f/]
.	.	.	4g/
.	.	.	4a/
.	.	4d\	4b-\
2C/	.	2e-i\	2cc\
2D\	.	2d\	[2a/
=237	=237	=237	=237
1C	0A]	1e-i	2a/]
.	.	.	1g
1D	.	[1d	.
.	.	.	2f#i/
=238	=238	=238	=238
[0GG;l	[0Gl	1d]	[0gl
.	.	1B-	.
=239	=239	=239	=239
0GG]	0G]	0B-l	0g]
==	==	==	==
*-	*-	*-	*-
!!!RDF**kern: l=long note in original notation
!!!RDF**kern: i=editorial accidental
!!!ENC:	Jesse Rodin; Victoria Chang 2011/05/10
!!!END:	2011/05/10/
!!!EED:	Jesse Rodin
!!!EEV: 2012/04/24/
!!attribution-level@Jos: 1 (secure)
!!!ONB:	Translated from MusicXML and edited on 2011/08/18/ by Craig Sapp
!!muse2ps: u^(2) @{OTL2} (3) @{OTL3}^C^@{COM}\n@{SCT}^i2I150v90,90,90,150Q16
